X:1
T:Ivo de vento  -  O bone Jesu
T:Ivo de Vento c. 1544-1572
T:Ivo de vento  -  O bone Jesu
T:(C) Wim Looyestijn - 2017. May be freely copied for non-commercial use.
T:(C) Wim Looyestijn - 2017. May be freely copied for non-commercial use.
T:(C) Wim Looyestijn - 2017. May be freely copied for non-commercial use.
T:(C) Wim Looyestijn - 2017. May be freely copied for non-commercial use.
T:(C) Wim Looyestijn - 2017. May be freely copied for non-commercial use.
T:(C) Wim Looyestijn - 2017. May be freely copied for non-commercial use.
T:(C) Wim Looyestijn - 2017. May be freely copied for non-commercial use.
T:(C) Wim Looyestijn - 2017. May be freely copied for non-commercial use.
T:(C) Wim Looyestijn - 2017. May be freely copied for non-commercial use.
T:(C) Wim Looyestijn - 2017. May be freely copied for non-commercial use.
T:(C) Wim Looyestijn - 2017. May be freely copied for non-commercial use.
T:(C) Wim Looyestijn - 2017. May be freely copied for non-commercial use.
T:(C) Wim Looyestijn - 2017. May be freely copied for non-commercial use.
T:(C) Wim Looyestijn - 2017. May be freely copied for non-commercial use.
T:(C) Wim Looyestijn - 2017. May be freely copied for non-commercial use.
T:(C) Wim Looyestijn - 2017. May be freely copied for non-commercial use.
T:(C) Wim Looyestijn - 2017. May be freely copied for non-commercial use.
T:(C) Wim Looyestijn - 2017. May be freely copied for non-commercial use.
T:(C) Wim Looyestijn - 2017. May be freely copied for non-commercial use.
T:(C) Wim Looyestijn - 2017. May be freely copied for non-commercial use.
T:(C) Wim Looyestijn - 2017. May be freely copied for non-commercial use.
T:(C) Wim Looyestijn - 2017. May be freely copied for non-commercial use.
T:(C) Wim Looyestijn - 2017. May be freely copied for non-commercial use.
T:(C) Wim Looyestijn - 2017. May be freely copied for non-commercial use.
C:Ivo de Vento
C:c. 1544-1572
Z:(C) Wim Looyestijn - 2017. May be freely copied for non-commercial use.
%%score [ 1 2 3 4 ]
L:1/8
Q:1/4=160
M:2/2
K:F
V:1 alto1 nm="Discantus" snm="D"
V:2 alto nm="Altus" snm="A"
V:3 tenor nm="Tenor" snm="T"
V:4 bass nm="Bassus" snm="B"
V:1
 x8 | x8 | x8 |[M:4/2][K:treble]"^Prima pars" z16 | z16 | z16 | G16 | F8 D4 F4- | F4 E2 D2 E8 | %9
w: ||||||O|bo- ne Je-||
 D8 z8 | z16 | z8 z4 G4- | G4 F4 G4 A4 | F4 E4 F8 | z4 G4 G8 | A4 A4 c4 c4- | c2 c2 B4 A4 A4- | %17
w: su,||o|_ dul- cis- si-|me Je- su,|o Je-|su fi- li vir-|* gi- nis Ma- ri-|
 A4 G2 F2 G8 | A4 A8 A4 | A8 B4 A4- | A2 GF G4 A8 | z8 B8- | B4 A4 G8- | G4 G4 G6 G2 | %24
w: |æ, ple- nus|cha- ri- ta-|* * * * tis|et|_ mi- se-|* ri- cor- di-|
 F4 F4 F4 G4 | A4 G2 F2 E8 | D4 F4 G4 A4 | B8 A8 | z4 B4 B4 A2 G2 | A4 B4 A6 A2 | G8 E8 | F8 G8 | %32
w: æ, o Je- su|dul- * * *|cis se- cun- dum|mag- nam|mi- se- * *|* ri- cor- si-|am tu-|am me-|
 G4 G4 G8 | F16 | z16 | z4 F4 A4 A4 | c12 B4 | c4 d4 c6 A2 | B4 c4 d4 c4- | c2 B2 B6 AG A4 | %40
w: men- to me-|i.||De- pre- cor|te per|il- lum san- gui-|nem pre- ci- o-||
 B8 z8 | z16 | z16 | z16 | z16 | z8 F8- | F4 A8 B4 | A8 z8 | z4 A4 c4 c4 | B4 G4 A4 A4 | %50
w: sum,|||||ut|_ ab- lu-|as,|om- nes in-|i- qui- ta- tes|
 B6 A2 G2 E2 A4 | F8 z8 | z4 F4 A6 A2 | B8 z8 | d12 c4 | B8 A8 | A12 A4 | B8 G4 G4- | G4 G4 G8- | %59
w: me- * * * *|as|hu- mi- li-|ter|pœ- ni-|ten- tem,|et hoc|no- men san-|* ctum tu-|
 G8 F8 | B12 A4 | B6 A2 G8 | F16 ||"^Secunda pars" D8 F4 F4 | B8 A8 | z8 z4 G4- | G4 F4 B8 | %67
w: * um|in- vo-|can- * *|tem.|O no- men|Je- su,|no-|* men dul-|
 A8 F8 | z8 z4 c4- | c4 B4 A6 GF | G2 F2 F2 ED E8 | F8 z4 A4 | A4 G2 F2 G8 | F4 F8 G4- | %74
w: * ce,|no-|* men Je- * *||su, quid|e- * * *|nim est Je-|
 G2 F2 G2 A2 B8 | A4 F4 A4 A4 | c6 B2 A2 F2 B4- | B2 AG A4 B8 |[M:3/1] F8 F8 F8 | G16 G8 | %80
w: |sus ni- si sal-|va- * * * *|* * * * tor.|O Je- su|pro- pter|
 F8 B8 G8 | F8 G16 | F8 A16 | B16 A8 | G8 F12 F4 |[M:4/2] E4 E4 F4 F4 | E8 D4 G4- | G4 F4 D4 E4- | %88
w: no- men san-|ctum tu-|um sal-|va me|ne per- e-|am, tu qui plas-|ma- sti et|_ re- de- mi-|
 E2 D2 D8 C4 | D8 z8 | z16 | z16 | z8 F8 | F4 B4 A4 G4 | F8 z8 | z8 z4 A4 | c6 B2 A2 G2 G4- | %97
w: * * * sti|me.|||Quem|tu ex ni- hi-|lo|cre-|a- * * * *|
 G2 ^FE F4 G8 | z8 z4 B4- | B4 A4 G8 | d8 z4 G4 | F8 G4 A4 | B4 G4 A8 | z16 | z4 A6 A2 d4 | %105
w: * * * * sti,|ne|_ per- dat|me, quem|fe- cit om-|ni- po- tens||bo- ni- tas|
 d6 cB c2 B2 B4- | B2 AG A4 B8 | B8 c4 c4 | A8 G4 G4 | _E4 E4 D8 | D4 d8 c4 | B8 A4 A4- | %112
w: tu- * * * * *|* * * * a.|O bo- ne|Je- su, o|bo- ne Je-|su, re- cog-|nos- ce quod|
 A4 G6 F2 E2 D2 | E4 E4 F8 | z16 | D8 E4 F4 | G8 z8 | z8 F8 | G4 A4 B4 B4- | B2 AG A4 B4 G4 | %120
w: tu- * * * *|* um est,||et ab- ster-|ge,|et|ab- ster- ge quod|_ _ _ _ a- li-|
 G4 F4 G8- | G16- | G16 ||"^Tertia pars" z16 | z16 | d8 c4 A4 | B4 c4 d4 B4 | A8 F6 F2 | %128
w: e- num est.|_||||O be- nig-|nis- si- me Je-|su, mi- se-|
 F4 F4 G8- | G8 F4 F4 | F4 G4 E8 | F12 E4 | D8 ^C8 | (3:2:2D16 F8 | (3:2:2F16 E8 | (3E8 G12 G4 | %136
w: re- re me-|* i, dum|tem- pus est|mi- se-|ren- di,|ne me|dam- nes|in tem- po-|
 (3:2:2F8 _E16 | (3:2:2_E8 D16 | D8 z4 F4- | F4 E4 F4 G4 | F8 z8 | z8 d6 c2 | B4 A4 G4 F4 | %143
w: re in-|di- can-|di, quae|_ u- ti- li-|tas|dum _|_ de- scen- de-|
 G8 B6 A2 | G4 F4 G4 G4 | F8 B6 A2 | G4 F4 E2 D2 D4- | D4 C4 D4 D4- | D4 D4 D8 | C4 F8 A4- | %150
w: ro, dum _|_ de- scen- de-|ro, dum _|_ de- scen- * *|* de- ro in|_ æ- ter-|nam cor- rup-|
 A2 G2 G6 ^FE F4 | G8 G8 | F4 G4 A4 B4 | A16 | z4 G4 B8 | A4 F4 G4 G4 | F8 D8 | E8 F6 D2 | %158
w: * ti- o- * * *|nem. Non|e- nim mor- tu-|i|lau- da-|bunt te Do- mi-|ne, ne-|que om- *|
 G2 E2 A4 D4 d4- | d4 c4 B4 A4 | G6 F2 A4 B4 | c8 B8 | G8 A4 c4 | B4 A4 G4 B4- | B2 AG A4 B4 B4 | %165
w: * * * nes qui|_ de- scen- dunt|in _ _ in-|fer- num.|O a- man-|tis- si- me Je-|* * * * su, o|
 B4 B4 A6 A2 | G4 G4 F8 | F6 F2 B4 A4 | G4 F4 G4 B4 | B4 B4 A4 G4 | A2 G2 G6 ^FE F4 | G8 z8 | %172
w: di- lec- tis- si-|me Je- su,|o mi- tis- si-|me Je- su, o|Je- su, ad- mit-|te _ _ _ _ _|me|
 z8 G8- | G4 G4 F8 | F4 A4 D2 E2 F2 D2 | E2 D2 D6 CB, C4 | D16- | D16 ||"^Quarta pars" z8 G8 | %179
w: e-|* lec- to-|rum tu- o- * * *||rum.|_|O|
 A8 B4 G4 | d4 B4 A4 d4 | c6 BA B4 c4 | d4 B4 A8 | z16 | z16 | z16 | z16 | z16 | z4 F4 G4 A4 | %189
w: Je- su so-|la- ti- um, in|te _ _ _ cre-|den- ti- um.||||||O Je- su|
 B8 A8 | z8 z4 D4 | F6 G2 A8 | z4 A4 A4 G2 F2 | E4 E4 D4 F4- | F2 F2 F4 G4 G4 | c8 B8 | z8 z4 B4- | %197
w: dul- cis,|re-|mis- si- o,|re- mis- * *|* si- o om-|* ni- um pec- ca-|to- rum,|fi-|
 B4 A4 B4 G4 | d8 z4 G4 | F2 E2 D2 E2 F2 G2 A4- | A2 G2 G6 ^FE F4 | G4 B4 B8 | G4 B4 A4 A4- | %203
w: * li vir- gi-|nis Ma-|ri- * * * * * *||æ, in- fun-|de in me gra-|
 A2 G2 F8 E4 | F4 F4 F4 G4 | A8 z8 | z4 F8 G4 | A6 A2 F8 | z8 D6 E2 | F4 E4 F2 D2 A4- | %210
w: * * * ti-|am, sci- en- ti-|am,|sa- pi-|en- ti- am,|cas- *|* ti- ta- * *|
 A2 G2 G6 ^FE F4 | G8 z8 | z8 z4 G4- | G4 F4 D6 E2 | F4 E4 z4 G4 | G8 F4 B4 | A6 A2 G8 | z4 F8 F4 | %218
w: |tem,|ut|_ pos- sim _|_ te per-|fec- tem di-|li- ge- re,|te lau-|
 B8 A8 | z8 A8 | A4 c4 B4 A4 | F6 G2 A8 | F8 A8 | A4 A4 G4 E4 | G6 G2 F4 D4 | E4 F4 G4 A4 | %226
w: da- re,|et|in te glo- ri-|a- * *|ri, at-|que om- nes qui|in- vo- cant hoc|no- men san- ctum|
 B4 A2 G2 F2 G2 A2 B2 | c2 A2 d6 ^c=B c4 | d4 G4 G2 A2 B2 G2 | A4 G6 ^FE F4 | G4 B6 A2 G4 | %231
w: tu- * * * * * *||um, quod est _ _ _|_ Je- * * *|sus. A- * *|
 F4 A6 G2 F4 | E4 G6 F2 E4 | D4 F6 E2 D4 | C4 B,2 C2 D2 E2 F2 G2 | A4 G6 ^FE F4 | G4 B6 A2 G4 | %237
w: men, A- * *|men, A- * *|men, A- * *|men, A- * * * * *||men, A- * *|
 F4 A6 G2 F4 | E4 G6 F2 E4 | D4 F6 E2 D4 | C4 B,2 C2 D2 E2 F2 G2 | A4 G6 ^FE F4 | G16- | G16 |] %244
w: men, A- * *|men, A- * *|men, A- * *|men, A- * * * * *||men.|_|
V:2
 x8 | x8 | x8 |[M:4/2][K:treble] z16 | z16 | z16 | z8 G,8 | B,4 A,4 B,6 A,2 | B,2 C2 D6 ^CB, C4 | %9
w: ||||||O|bo- ne Je- *||
 D8 z8 | z8 D8- | D8 G,8 | B,4 A,4 G,4 D4- | D2 ^CB, C4 D4 A,4 | B,4 _E4 D6 E2 | F8 F8 | z4 D8 C4 | %17
w: su,|o|_ dul-|cis- si- me Je-|* * * * su, o|Je- su fi- *|* li|vir- gi-|
 F4 D4 D6 E2 | F4 E4 F8- | F4 F4 F4 F4 | D8 F4 F4- | F4 E4 D8- | D4 C4 B,6 A,2 | G,12 G,4 | %24
w: nis Ma- ri- *|* æ, ple-|* nus cha- ri-|ta- tis et|_ mi- se-|* ri- cor- *|* di-|
 A,4 D8 E4 | F4 D6 CB, C4 | D4 D8 F4 | F4 G6 FE F4 | G8 G8 | F4 G4 G4 F4 | E4 D6 ^CB, C4 | D8 B,8 | %32
w: æ, o Je-|su dul- * * *|cis se- cun-|dum mag- * * *|nam mi-|se- ri- cor- si-|am tu- * * *|am me-|
 _E12 E4 | D8 D8 | z8 z4 C4 | D4 D4 F8- | F4 E4 F4 G4 | F6 D2 E4 F4 | G4 F6 D2 E2 F2 | D6 CB, C8 | %40
w: men- to|me- i.|De-|pre- cor te|_ per il- lum|san- gui- nem pre-|ci- o- * * *||
 D8 z8 | z16 | z16 | z16 | z16 | z8 z4 A,4 | D6 E2 F4 G4 | F8 z4 D4 | F4 F4 E4 C4 | D4 E4 F8 | %50
w: sum,|||||ut|ab- * * lu-|as, om-|nes in- i- qui-|ta- tes me-|
 D8 z8 | z8 z4 C4 | D6 D2 F8 | z8 z4 F4- | F4 D4 F8 | G8 C8 | F12 F4 | D8 D4 D4 | _E4 E6 D2 D4- | %59
w: as|hu-|mi- li- ter|pœ-|* ni- ten-|* tem,|et hoc|no- men san-|ctum tu- * *|
 D2 ^CB, C4 D4 D4- | D4 _E4 D8- | D8 D8- | D16 || z8 D8 | B,4 G,4 D8 | A,8 z8 | z4 D8 D4 | D8 D8 | %68
w: * * * * um in-|* vo- can-|* tem.|_|O|no- men Je-|su,|no- men|dul- ce,|
 z16 | z4 D6 E2 F4 | E4 D6 ^CB, C4 | D8 z8 | z16 | z4 D4 D4 C2 B,2 | C8 B,4 B,4 | D2 C2 D2 E2 F8 | %76
w: |no- * *|men Je- * * *|su,||quid e- * *|* nim est|Je- * * * *|
 E4 C4 F4 D4 | C8 B,8 |[M:3/1] D8 D8 D8 | _E16 E8 | D8 F8 _E8 | D8 B,8 C8 | D8 F8 F8 | G8 D8 F8 | %84
w: sus ni- si sal-|va- tor.|O Je- su|pro- pter|no- men san-|ctum tu- *|um sal- va|_ me ne|
 C16 B,8 |[M:4/2] C4 C4 C4 D4 | C8 B,4 D4 | D6 C2 B,4 C4 | A,4 G,4 A,8- | A,8 z4 G,4 | %90
w: per- e-|am, tu qui plas-|ma- sti et|re- * * de-|mi- sti me.|_ Ne|
 D6 D2 C4 D4- | D4 _E4 D6 CB, | C8 D4 D4 | D4 B,4 C6 C2 | D8 z8 | z4 E4 F8- | F4 E2 D2 E8 | D16 | %98
w: per- mit- tas me|_ dam- na- * *|* ri, quem|tu ex ni- hi-|lo|cre- a-||sti,|
 z8 z4 D4- | D4 C4 _E8 | D8 z8 | z4 D4 C8 | D4 E4 F6 F2 | E8 z8 | C6 C2 F8 | F8 G8 | F8 F8 | %107
w: ne|_ per- dat|me,|quem fe-|cit om- ni- po-|tens|bo- ni- tas|tu- *|a. O|
 G4 G4 A2 G2 G4- | G2 FE F4 G4 G,4 | C4 C4 A,8 | B,8 D8- | D4 E4 F8 | F4 E8 D4- | D4 C4 D4 D4 | %114
w: bo- ne Je- * *|* * * * su, o|bo- ne Je-|su, re-|* cog- nos-|ce quod tu-|* um est, et|
 G,4 A,4 B,4 D4 | B,4 D8 C4- | C4 B,4 A,4 A,4 | B,4 C4 D4 D4- | D4 F8 E4 | F6 F2 F4 D4 | %120
w: ab- ster- ge quod|a- li- e-|* num est, et|ab- ster- ge quod|_ a- li-|e- num est, et|
 _E4 D4 B,4 =E4 | C4 D4 _E6 E2 | D16 || z16 | z8 G8 | F4 D4 E4 F4 | G4 E4 D8 | z4 D8 D4 | %128
w: ab- ster- ge quod|a- li- e- num|est.||O|be- nig- nis- si-|me Je- su,|mi- se-|
 D6 C2 B,4 A,4 | G,8 A,4 A,4 | B,4 G,4 A,8 | z4 F,4 F,4 A,4- | A,2 G,F, G,4 A,8 | (3:2:2F,16 B,8 | %134
w: re- * * re|me- i, dum|tem- pus est|mi- se- ren-|* * * * di,|ne me|
 (3:2:2A,16 F,8 | (3C8 D12 D4 | (3:2:2D8 B,16 | (3:2:2C8 A,16 | B,4 B,8 A,4 | B,4 C4 B,4 B,4- | %140
w: dam- nes|in tem- po-|re in-|di- can-|di, quae u-|ti- li- tas in|
 B,2 A,2 D4 _E4 D4 | D4 G8 F4 | F6 E2 D4 C4 | D4 B,4 B,4 B,4- | B,2 G,2 A,4 B,4 D4- | %145
w: _ _ _ san- gui-|ne me- o,|dum _ _ de-|scen- de- ro, dum|_ _ _ de- scen-|
 D2 D2 A,4 z4 D4- | D4 D4 B,6 B,2 | A,4 A,8 A,4 | B,16 | A,4 C4 C6 D2 | _E4 E4 D8 | B,8 z8 | %152
w: * de- ro, dum|_ de- scen- de-|ro in æ-|ter-|nam cor- rup- *|* ti- o-|nem.|
 z8 z4 D4 | F8 C4 C4 | _E4 E4 D8 | z16 | z4 A,8 B,4 | C8 D8 | z8 G6 G2 | D8 D6 A,2 | %160
w: Lau-|da- bunt te|Do- mi- ne,||ne- que|om- nes|qui de-|scen- dunt _|
 B,2 C2 D4 _E4 D4 | C4 A,4 z4 D4 | E4 G4 F4 E4 | D2 E2 F2 D2 _E2 D2 C2 B,2 | C4 C4 B,4 D4 | %165
w: _ _ _ in in-|fer- num. O|a- man- tis- si-|me _ _ _ _ _ _ _|_ Je- su, o|
 G4 F4 F6 F2 | D4 C4 D4 D4- | D4 D4 F6 E2 | D4 C4 D4 G4 | G4 F4 F4 D4 | _E8 D4 D4- | D4 E4 F6 E2 | %172
w: di- lec- tis- si-|me Je- su, o|_ mi- tis- si-|me Je- su, o|Je- su, ad- mit-|te me in-|* ter nu- *|
 D2 C2 B,2 A,2 B,2 C2 D4- | D4 C4 D8 | D6 A,2 B,4 F,4 | B,8 A,8 | G,4 F,4 B,8 | A,16 || D8 E8 | %179
w: |* me- rum|e- * * lec-|to- *|rum tu- o-|rum.|O Je-|
 F4 D4 G4 E4 | D4 G4 F6 ED | E4 F4 G4 F2 E2 | F2 D2 G8 F4 | G8 z8 | z16 | z16 | z16 | z16 | %188
w: su so- la- ti-|um, in te _ _|_ _ cre- den- *|* * * ti-|um.|||||
 D8 E4 F4 | G8 F8 | z16 | z4 D4 F6 G2 | A8 z8 | z8 F6 F2 | D4 D6 D2 G4- | G2 ^FE F4 G8 | %196
w: O Je- su|dul- cis,||re- mis- si-|o|om- ni-|um pec- ca- to-|* * * * rum,|
 z8 z4 G4- | G4 F4 G4 _E4 | D4 D8 C4 | D4 B,4 A,4 A,4 | D4 C4 D8 | z4 G4 G4 G4 | D6 E2 F6 ED | %203
w: fi-|* li vir- gi-|nis, fi- li|vir- gi- nis Ma-|* ri- æ,|in- fun- de|in _ _ _ _|
 C4 D4 C6 C2 | A,4 A,4 D4 C4 | F8 z8 | C6 C2 D4 E4 | F8 z8 | z8 z4 D4- | D4 C4 D6 C2 | %210
w: _ me gra- ti-|am, sci- en- ti-|am,|sa- pi- en- ti-|am,|cas-|* ti- ta- *|
 B,4 A,2 G,2 A,8 | G,8 D8 | z8 G,6 A,2 | B,4 A,4 B,8 | A,8 D4 D4- | D4 D6 E2 F4 | F6 E2 D4 _E4 | %217
w: |* tem,|ut _|_ pos- sim|_ te per-|* fec- * *|tem _ _ di-|
 C6 C2 D4 D4- | D2 D2 G4 F8 | z8 C8 | F4 E4 G4 C4 | D6 E2 F4 E4 | z4 D4 D4 D4 | C4 A,4 C6 C2 | %224
w: li- ge- re, te|_ lau- da- re,|et|in te glo- ri-|a- * * ri,|at- que om-|nes qui in- vo-|
 B,4 G,4 A,4 B,4 | C4 D4 _E4 D2 C2 | B,2 G,2 B,2 C2 D2 E2 F4- | F4 E2 D2 E8 | D4 D8 D4 | _E8 D8 | %230
w: cant hoc no- men|san- ctum tu- * *|||um, quod est|Je- *|
 D8 B,6 C2 | D4 C4 A,6 B,2 | C4 B,4 G,6 A,2 | B,4 A,2 G,2 F,4 G,4 | A,4 D6 C2 B,4 | A,4 D4 D8- | %236
w: sus. A- *|* men, A- *|* men, A- *||men, A- * *|men, A- men,|
 D8 B,6 C2 | D4 C4 A,6 B,2 | C4 B,4 G,6 A,2 | B,4 A,2 G,2 F,4 G,4 | A,4 D6 C2 B,4 | A,4 D4 D4 D4- | %242
w: _ A- *|* men, A- *|* men, A- *||men, A- * *|men, A- men, A-|
 D2 C2 D4 _E8 | D16 |] %244
w: |men.|
V:3
 x8 | x8 | x8 |[M:4/2][K:treble-8] G8 B6 A2 | B2 c2 d6 cB c4 | B4 A2 B2 c2 A2 d4- | d4 ^c2 B2 c8 | %7
w: |||O bo- *||ne Je- * * * *||
 d16 | z8 A8 | B4 B2 A2 B2 c2 d4- | d4 c4 A4 B4- | B2 A2 d6 ^cB c4 | d8 z8 | z4 A8 d4- | %14
w: su,|o|pi- is- * * * *|* si- me Je-||su,|o Je-|
 d2 c2 c8 B4 | c8 A8 | d6 e2 f4 e4 | d8 G4 d4- | d2 ^cB c4 d8 | d6 d2 d4 c4 | B8 c8 | d12 c4 | %22
w: * * * su|fi- li|vir- * * gi-|nis Ma- ri-|* * * * æ,|ple- nus cha- ri-|ta- tis|et mi-|
 B8 _e4 d4- | d4 c2 B2 c4 c4 | d8 z8 | F8 G4 A4 | B8 G4 d4 | d4 c2 B2 c4 d4 | _e12 e4 | %29
w: se- ri- cor-|* * * * di-|æ,|se- cun- dum|mag- nam mi-|se- * * * ri-|cor- si-|
 d4 c2 B2 c4 d4 | G8 A8- | A4 B8 G4 | B16 | B8 z4 F4 | A4 A4 c6 c2 | B4 B4 A8- | A8 z8 | z16 | %38
w: am _ _ _ tu-|am me-|* men- to|me-|i. O|cle- men- tis- si-|me Je- su,|_||
 z16 | z8 z4 F4- | F4 G4 A8 | F4 B8 G4 | c6 c2 A4 A4 | d6 d2 B4 d4- | d2 e2 f4 e4 d4- | %45
w: |quem|_ pro no-|bis pec- ca-|to- ri- bus ef-|fun- de- re vo-|* * * lu- i-|
 d2 ^cB c4 d8 | z8 d8- | d4 A8 B4 | A8 z8 | z8 z8 | z4 G4 c8 | A4 B8 A4 | B8 z8 | z4 B4 d6 d2 | %54
w: * * * * sti,|ut|_ ab- lu-|as,||et me|re- spi- ci-|as|hu- mi- li-|
 f4 f4 d4 f4- | f2 ed e4 f4 c4- | c4 c4 d8 | B4 B8 B4 | c6 BA G2 A2 B4- | B4 A2 G2 B4 A4 | %60
w: ter pœ- ni- ten-|* * * * tem, et|_ hoc no-|men san- ctum|tu- * * * * *|* * * * um|
 z4 G8 F4 | G6 A2 B8 | A16 || z16 | z8 z4 E4 | F4 F4 B8 | A8 z4 G4- | G4 F4 B6 AG | %68
w: in- vo-|can- * *|tem.||O|no- men Je-|su, no-|* men dul- * *|
 A2 G2 G6 ^FE F4 | G8 z8 | z8 A8 | A4 B4 A6 B2 | c2 A2 d6 ^cB c4 | d8 z8 | z16 | z16 | z16 | z16 | %78
w: |ce,|no-|men con- for- *||tans,|||||
[M:3/1] B8 B8 B8 | B16 B8 | B8 d8 c8 | A8 G16 | A16 d8 | d8 B8 c8- | c8 d12 d4 | %85
w: O Je- su|pro- pter|no- men san-|ctum tu-|um sal-|va me ne|_ per- e-|
[M:4/2] G4 G4 A4 B4 | G8 G4 B4 | B4 A2 G2 F4 G4 | F4 E2 D2 E4 E4 | F4 F4 B6 B2 | A4 B4 c4 B2 A2 | %91
w: am, tu qui plas-|ma- sti et|re- * * * de-|mi- * * * sti|me. Ne per- mit-|tas me dam- * *|
 B4 G2 A2 B2 c2 B4- | B2 AG A4 B8 | z8 z8 | z4 A4 F4 B4 | A4 G4 F8 | z4 G4 c6 B2 | A8 B4 B4 | %98
w: * na- * * * *|* * * * ri,||quem tu ex|ni- hi- lo|cre- a- *|* sti, o|
 d4 c4 B8 | f8 z4 B4 | B4 A4 B4 c4 | d8 z8 | G8 F8 | G4 A4 B4 G4 | A8 z4 B4- | B2 B2 d4 _e6 d2 | %106
w: bo- ne Je-|su in-|i- qui- tas me-|a,|quem fe-|cit om- ni- po-|tens bo-|* ni- tas tu- *|
 c8 d4 d4 | _e4 e4 c8 | d4 d4 B8 | A4 G6 ^FE F4 | G4 B8 A4 | G8 d6 c2 | A4 c4 G4 B4 | A4 A8 B4 | %114
w: * a. O|bo- ne Je-|su, o bo-|ne Je- * * *|su, re- cog-|nos- ce _|_ quod tu- um|est, et ab-|
 c4 d6 c2 B2 A2 | G8 z4 c4 | d4 e4 f4 d4 | e4 f4 f2 e2 d2 c2 | B2 G2 d8 B4 | c4 c4 d4 B4 | A8 G8 | %121
w: ster- ge, _ _ _|_ et|ab- ster- ge quod|a- li- e- * * *|* * * num|est, et ab- ster-|ge quod|
 _e4 d4 c6 c2 | B16 || z8 d8 | c4 A4 B4 c4 | d4 B4 A8 | z8 z4 G4- | G4 F4 B8 | A4 d8 c2 B2 | %129
w: a- li- e- num|est.|O|be- nig- nis- si-|me Je- su,|mi-|* se- re-|re me- * *|
 c8 d8 | z4 d8 c4 | B4 A2 G2 A8 | D8 E8 | (3:2:2D16 d8 | (3:2:2c16 c8 | (3G8 B12 B4 | (3A8 G8 G8 | %137
w: * i,|mi- se-|ren- * * *|* di,|ne me|dam- nes|in tem- po-|re in- di-|
 (3:2:4G12 ^F2 E2 F8 | G8 z8 | z16 | z4 A4 B6 B2 | A4 G4 A8 | d6 c2 B4 A4 | B6 A2 G4 F4 | %144
w: can- * * *|di,||in san- gui-|ne me- o,|dum _ _ de-|scen- * * de-|
 G4 d6 c2 B4 | A4 d6 d2 G4 | B6 A2 G4 F4 | E6 E2 D4 F4- | F4 F4 F8 | F4 A4 A6 GA | B4 c4 A8 | %151
w: ro, dum _ _|de- scen- de- ro,|dum _ _ de-|scen- de- ro in|_ æ- ter-|nam cor- rup- * *|* ti- o-|
 G4 d4 B4 c4 | d4 _e4 d8 | z8 z4 A4 | c8 B4 G4 | c2 A2 d8 c4 | d8 z8 | z4 A8 B4 | c8 B4 B4- | %159
w: nem. Non e- nim|mor- tu- i|lau-|da- bunt te|Do- * * mi-|ne,|ne- que|om- nes qui|
 B4 A4 G4 D4 | G4 B4 A2 G2 G4- | G2 ^FE F4 G8 | z16 | z16 | z8 z4 B4 | d4 d4 c6 c2 | B4 G4 A4 A4- | %167
w: _ de- scen- dunt|in in- fer- * *|* * * * num.|||O|di- lec- tis- si-|me Je- su, o|
 A4 A4 d6 c2 | B4 A4 B4 d4 | d4 d4 c4 B4 | c6 B2 A8 | B8 z8 | z16 | z8 A8 | A4 F8 D4 | G8 F4 E4 | %176
w: _ mi- tis- si-|me Je- su, o|Je- su, ad- mit-|te _ _|me||e-|lec- to- rum,|e- lec- to-|
 D4 D4 G8 | F16 || z16 | z16 | z16 | z16 | z16 | z4 G4 A8 | B4 G4 d4 B4 | A4 d4 c6 A2 | %186
w: rum tu- o-|rum.||||||O Je-|su so- la- ti-|um, ad te _|
 B4 c4 d6 d2 | c2 B2 B8 A4 | B8 z8 | z4 G4 d4 d4 | c6 A2 B8 | A8 z4 D4 | F6 G2 A2 D2 d4- | %193
w: _ con- fu- gi-|en- * * ti-|um.|O Je- su|dul- * *|cis, re-|mis- * * * *|
 d4 c4 d4 d4- | d2 d2 B4 B4 d4 | c8 d4 d4 | c4 B2 A2 B2 c2 d4 | d8 z4 B4- | B4 A4 B4 G4 | %199
w: * si- o om-|* ni- um pec- ca-|to- rum, o|Je- * * * * *|su fi-|* li vir- gi-|
 A4 f4 f2 e2 d2 c2 | B4 A2 G2 A8 | G8 z4 d4 | B4 B4 c6 B2 | A4 B4 G6 G2 | F8 z8 | z4 A4 F4 G4 | %206
w: nis Ma- ri- * * *||æ, in-|fun- de in _|_ me gra- ti-|am,|sci- en- ti-|
 A8 z8 | z4 d8 A4 | B2 A2 A6 GF G4 | A8 z8 | z8 z4 c4- | c4 B4 G4 A4 | B2 A2 d6 ^c=B c4 | %213
w: am,|cha- ri-|ta- * * * * *|tem|et|_ hu- mi- li-|ta- * * * * *|
 d8 z4 d4- | d4 c4 B8- | B8 A4 d4- | d4 c6 B2 B4- | B4 A4 B8 | z8 d8 | d4 e4 f4 f4 | c8 d4 f4- | %221
w: tem te|_ per- fec-|* tem di-|* li- * *|* ge- re,|te|per- fru- i, et|in te glo-|
 f2 f2 d6 ^c=B c4 | d8 z8 | z16 | z16 | z16 | z16 | z16 | B8 B8 | c6 B2 A8 | B8 G6 A2 | %231
w: * ri- a- * * *|ri,||||||quod est|Je- * *|sus. A- *|
 B4 A4 F6 G2 | A4 G4 B4 c4 | F8 D6 E2 | F2 E2 G4 D4 d4- | d2 c2 B4 A8 | B8 G6 A2 | B4 A4 F6 G2 | %238
w: * men, A- *|* * men, A-|men, A- *|* * * men, A-||men, A- *|* men, A- *|
 A4 G4 B4 c4 | F8 D6 E2 | F2 E2 G4 D4 d4- | d2 c2 B4 A8 | B8 c8 | B16 |] %244
w: * men, A- *|men, A- *|* * * men, A-|* * * men,|A- *|men.|
V:4
 x8 | x8 | x8 |[M:4/2] z8 G,8- | G,8 F,8 | D,4 F,8 E,2 D,2 | E,16 | D,8 z8 | z16 | z4 G,8 F,4 | %10
w: |||O|_ bo-|ne Je- * *||su,||o pi-|
 G,4 A,4 F,4 G,4- | G,2 F,2 F,2 E,D, E,8 | D,8 z8 | z8 D,8 | G,16 | F,8 F,8 | G,8 A,6 A,2 | %17
w: is- si- me Je-||su,|o|Je-|su fi-|li vir- gi-|
 B,4 B,4 B,8 | A,8 D,8- | D,4 D,4 D,4 F,4 | G,8 F,8 | B,12 A,4 | G,12 F,4 | _E,12 E,4 | D,8 z8 | %25
w: nis Ma- ri-|æ, ple-|* nus cha- ri-|ta- tis|et mi-|se- ri-|cor- di-|æ,|
 z16 | z16 | z16 | z16 | z16 | z16 | D,8 _E,8- | E,4 _E,4 E,8 | B,,4 B,,4 D,4 D,4 | %34
w: ||||||me- men-|* to me-|i. O cle- men-|
 F,6 F,2 F,4 E,4 | D,16 | z16 | z16 | z16 | z16 | B,,8 C,4 D,4- | D,4 B,,4 _E,8- | %42
w: tis- si- me Je-|su,|||||quem pro no-|* bis pec-|
 E,4 C,4 F,6 F,2 | D,4 D,4 G,6 G,2 | F,8 G,4 D,4 | E,8 D,8 | z8 z4 G,4 | D,6 E,2 F,4 G,4 | D,8 z8 | %49
w: * ca- to- ri-|bus ef- fun- de-|re vo- lu-|i- sti,|ut|ab- * * lu-|as,|
 z8 z4 D,4 | G,8 E,4 F,4- | F,4 E,2 D,2 C,4 C,4 | B,,8 z4 F,4 | G,6 G,2 B,8 | B,12 A,4 | G,8 F,8 | %56
w: et|me re- spi-|* * * * ci-|as hu-|mi- li- ter|pœ- ni-|ten- tem,|
 F,12 F,4 | G,8 G,8 | C,12 B,,4 | E,8 D,8 | G,,6 A,,2 B,,4 D,4 | G,,16 | D,16 || z16 | z16 | %65
w: et hoc|no- men|san- ctum|tu- um|in- * * vo-|can-|tem.|||
 D,8 B,,4 G,,4 | D,8 G,,8 | D,12 B,,4 | C,6 B,,2 A,,8 | G,,8 z8 | z16 | D,8 D,4 F,4 | %72
w: O no- men|Je- su,|no- men|dul- * *|ce,||no- men con-|
 F,4 E,2 D,2 E,8 | D,8 z8 | z16 | z16 | z16 | z16 |[M:3/1] B,,8 B,,8 B,,8 | _E,16 E,8 | %80
w: for- * * *|tans,|||||O Je- su|pro- pter|
 B,,8 B,,8 C,8 | D,8 _E,16 | D,16 D,8 | G,16 F,8 | E,8 D,12 D,4 |[M:4/2] C,4 C,4 F,4 B,,4 | %86
w: no- men san-|ctum tu-|um sal-|va me|ne per- e-|am, tu qui plas-|
 C,8 G,,8 | D,8 D,4 C,4 | D,4 B,,4 A,,8 | D,8 G,6 G,2 | F,4 G,4 A,4 G,2 F,2 | G,8 G,8 | F,8 z8 | %93
w: ma- sti|et re- de-|mi- sti me.|Ne per- mit-|tas me dam- * *|* na-|ri,|
 z16 | D,8 D,4 B,,4 | C,6 C,2 D,8 | C,8 C,8 | D,8 G,,4 G,4 | B,4 A,4 G,8 | F,8 z4 G,4 | %100
w: |quem tu ex|ni- hi- lo|cre- a-|* sti, o|bo- ne Je-|su, in-|
 G,4 F,4 G,4 E,4 | D,8 z8 | z8 z4 D,4 | C,8 D,4 E,4 | F,6 F,2 D,4 B,,4- | B,,2 B,,2 B,4 _E,8 | %106
w: i- qui- tas me-|a,|quem|fe- cit om-|ni- po- tens bo-|* ni- tas tu-|
 F,8 B,,8 | z16 | z4 D,4 _E,4 E,4 | C,8 D,8 | G,,8 z8 | z16 | z16 | z8 D,8 | E,4 F,4 G,4 G,4 | %115
w: * a.||O bo- ne|Je- *|su,|||et|ab- ster- ge quod|
 G,4 B,4 A,6 A,2 | G,8 F,8 | G,4 A,4 B,4 B,4 | G,4 F,4 G,6 G,2 | F,8 B,,8 | C,4 D,4 _E,4 C,4 | %121
w: a- li- e- num|est, et|ab- ster- ge quod|a- li- e- num|est, et|ab- ster- ge quod|
 C,4 B,,4 C,6 C,2 | G,,16 || G,8 F,4 D,4 | E,4 F,4 G,4 E,4 | D,8 z8 | z16 | D,12 D,4 | %128
w: a- li- e- num|est.|O be- nig-|nis- si- me Je-|su,||mi- se-|
 D,4 D,4 _E,8- | E,8 D,8 | z16 | D,12 C,4 | B,,8 A,,8 | (3:2:2B,,16 B,,8 | (3:2:2F,16 C,8 | %135
w: re- re me-|* i,||mi- se-|ren- di,|ne me|dam- nes|
 (3C,8 G,,12 G,,4 | (3:2:2D,8 _E,16 | (3:2:2C,8 D,16 | G,,8 D,8- | D,4 C,4 D,4 _E,4 | %140
w: in tem- po-|re in-|di- can-|di, quae|_ u- ti- li-|
 D,4 D,4 G,6 G,2 | F,4 E,4 D,8 | z16 | G,6 F,2 _E,4 D,4 | _E,4 D,4 G,,2 A,,2 B,,2 C,2 | D,8 G,,8- | %146
w: tas in san- gui-|ne me- o,||dum _ _ de-|scen- de- ro, _ _ _|_ dum|
 G,,8 G,,8 | A,,6 A,,2 D,8 | B,,12 B,,4 | F,,8 F,,4 F,4 | _E,4 C,4 D,8 | G,,8 z8 | z16 | %153
w: _ de-|scen- de- ro|in æ-|ter- nam cor-|rup- ti- o-|nem.||
 z4 D,4 F,8 | C,8 G,8 | F,6 D,2 _E,4 E,4 | D,16 | z8 D,8 | E,4 F,4 G,8 | G,12 F,4 | %160
w: Lau- da-|bunt te|Do- * * mi-|ne,|ne-|que om- nes|qui de-|
 _E,4 D,4 C,4 B,,4 | A,,8 G,,8 | z16 | z16 | z8 G,8 | G,4 B,4 F,6 F,2 | G,4 _E,4 D,8- | D,8 z8 | %168
w: scen- dunt in in-|fer- num.|||O|di- lec- tis- si-|me Je- su,|_|
 z8 G,8 | G,4 B,4 F,4 G,4 | C,8 D,8 | G,8 A,4 B,4- | B,2 A,2 G,2 F,2 G,2 F,2 E,2 D,2 | %173
w: o|Je- su, ad- mit-|te me|in- ter nu-||
 E,4 E,4 D,4 D,4- | D,4 D,4 B,,8 | G,,8 A,,8 | B,,6 A,,2 G,,8 | D,16 || z16 | z16 | z16 | z16 | %182
w: * me- rum e-|* lec- to-|rum tu-|o- * *|rum.|||||
 z8 D,8 | E,8 F,4 D,4 | G,4 E,4 D,4 G,4 | F,6 D,2 E,4 F,4 | G,4 F,2 E,2 F,4 D,4 | %187
w: O|Je- su so-|la- ti- um, ad|te _ _ _|con- fu- * * gi-|
 _E,6 D,2 C,4 C,4 | B,,8 z8 | z8 z4 D,4 | E,4 F,4 G,8 | D,8 z8 | z4 D,4 F,6 G,2 | A,8 B,6 B,2 | %194
w: en- * * ti-|um.|O|Je- su dul-|cis,|re- mis- si-|o om- ni-|
 B,8 G,4 B,4 | A,8 G,4 G,4 | A,4 G,2 F,2 G,8 | D,8 z4 G,4- | G,4 F,4 G,4 E,4 | D,4 D,6 E,2 F,4 | %200
w: um pec- ca-|to- rum, o|Je- * * *|su fi-|* li vir- gi-|nis Ma- * *|
 G,4 E,4 D,8 | z8 z4 G,4 | G,8 F,4 F,4- | F,4 B,,4 C,4 C,4 | D,8 z8 | D,8 D,4 C,4 | F,8 z8 | %207
w: * ri- æ,|in-|fun- de in|_ me gra- ti-|am,|sci- en- ti-|am,|
 z8 D,8- | D,4 A,,4 B,,8 | A,,8 z8 | z16 | z4 G,8 F,4 | D,4 F,4 E,8 | D,8 z8 | z8 G,8- | %215
w: cha-|* ri- ta-|tem||et hu-|mi- li- ta-|tem|te|
 G,4 G,4 D,8 | F,4 F,4 G,4 _E,4 | F,8 z8 | z8 z4 D,4 | G,4 G,4 F,4 F,4 | F,4 A,4 G,4 A,4 | %221
w: _ per- fec-|tem di- li- ge-|re,|te|per- fru- i, et|in te glo- ri-|
 B,8 A,8 | D,8 z8 | z16 | z16 | z16 | z16 | z16 | G,8 G,8 | C,8 D,8 | G,,4 G,6 F,2 _E,4 | %231
w: a- *|ri,||||||quod est|Je- *|sus. A- * *|
 D,4 F,6 E,2 D,4 | C,4 _E,6 D,2 C,4 | B,,4 D,6 C,2 B,,4 | A,,4 G,,2 A,,2 B,,2 C,2 D,2 E,2 | %235
w: men, A- * *|men, A- * *|men, A- * *|men, A- * * * * *|
 F,4 G,4 D,8 | G,,4 G,6 F,2 _E,4 | D,4 F,6 E,2 D,4 | C,4 _E,6 D,2 C,4 | B,,4 D,6 C,2 B,,4 | %240
w: * men, A-|men, A- * *|men, A- * *|men, A- * *|men, A- * *|
 A,,4 G,,2 A,,2 B,,2 C,2 D,2 E,2 | F,4 G,4 D,8 | G,,8 C,8 | G,,16 |] %244
w: men, A- * * * * *|* * men,|A- *|men.|

